X: 3740
T: Bird In The Bush, The
R: reel
M: 4/4
K: Gmajor
|:d2eB dBB2|dBAB G2AG|EGAd BAGA|BGBd egge|
d2eB dBB2|dBAB G2GE|DEGA B2eB|dBAc BGG2:|
|:Bdef g2fg|afdf gfed|Bdef g2gb|agab g2ga|
bgg2 agef|gfge dBGE|DEGA B2eB|dBAc BGG2:|

